packages/ui-icons/src/Basic/16/Museum_16.svg

<svg xmlns="http://www.w3.org/2000/svg" viewBox="0 0 20 20"><path d="M18 8h.6l.4-1-9-5-9 5 .42 1H2v8H1v1h8v-5a1 1 0 0 1 1-1 1.06 1.06 0 0 1 1 1v5h8v-1h-1Zm-1 8h-2V8h2ZM10 3l7.25 4H2.76ZM3 8h2v8H3Zm7 2a2 2 0 0 0-2 2v4H6V8h8v8h-2v-4a2.06 2.06 0 0 0-2-2Z"/></svg>

<svg id="ready" xmlns="http://www.w3.org/2000/svg" viewBox="0 0 20 20"><title>Megaicons_work_16_1.8_cp</title><path d="M18,8h.6L19,7,10,2,1,7l.42,1H2v8H1v1H9V12a1,1,0,0,1,1-1,1.06,1.06,0,0,1,1,1v5h8V16H18Zm-1,8H15V8h2ZM10,3l7.25,4H2.76ZM3,8H5v8H3Zm7,2a2,2,0,0,0-2,2v4H6V8h8v8H12V12A2.06,2.06,0,0,0,10,10Z"/></svg>
